X:1
T:Spin the Wheel
N:Transposed
C:Duolingo Music
M:4/4
Q:1/4=120
K:F
L:1/8
DE FE DE FE|DE FG A2 z2|
GA B2 FG A2|EF ED E2 A2|
dc BA dc BA|DE FG A2 z2|
B2 d2 A2 d2|GF EA D4|
FG AG AB cB|AG Fc A2 z2|
GA B2 DE F2|EF ED E2 A2|
dc BA GF ED|DE FG A2 z2|
Bd cB Ad BA|A2 FE D2 z2|]

